images/services/warranty.svg

<svg width="171" height="195" viewBox="0 0 171 195" fill="none" xmlns="http://www.w3.org/2000/svg">
<g clip-path="url(#clip0)">
<path d="M77.6941 174.636C77.5901 174.506 67.1991 161.64 65.0851 158.876C63.7641 157.149 61.7781 156.198 59.4921 156.198C56.9321 156.198 54.6561 157.368 53.9801 157.751L48.4941 160.494C46.7211 160.015 42.9071 158.544 39.2141 154.226C35.9301 150.387 35.9531 145.24 36.1281 143.127L42.0211 137.234C45.1141 134.517 44.4731 130.718 43.2671 128.803L43.0481 128.492C43.0481 128.492 30.1861 112.271 28.3821 109.994C27.3931 108.745 25.9071 108.056 24.1981 108.056C21.3491 108.056 18.3191 110.031 17.4421 110.648C6.55711 118.397 5.85611 125.21 5.81111 125.961L5.78711 126.375L5.86111 126.784C12.2731 162.51 31.8871 177.921 41.3141 185.327C42.4621 186.228 43.4541 187.008 44.1681 187.633C50.7311 193.38 57.9301 194 60.7211 194C63.0961 193.999 65.2011 193.595 66.8101 192.829C71.1761 190.751 76.2351 184.819 77.6821 183.051C80.1831 179.992 78.9651 176.452 77.8501 174.843L77.6941 174.636ZM63.8011 186.509C63.3021 186.746 62.2311 187 60.7201 187C59.1601 187 53.6881 186.666 48.7761 182.368C47.9221 181.621 46.8631 180.789 45.6371 179.825C36.9431 172.995 18.9081 158.824 12.8571 126.141C13.1461 125.162 14.6861 121.203 21.4771 116.37C22.1291 115.917 22.9851 115.466 23.5961 115.228C26.4271 118.8 35.0061 129.62 37.0981 132.258L29.5701 139.785L29.3671 140.84C29.2861 141.262 27.4561 151.249 33.8941 158.777C40.1801 166.126 47.1441 167.444 48.4771 167.633L49.5591 167.787L57.2031 163.964L57.4211 163.846C57.7021 163.679 58.7561 163.198 59.4921 163.198C59.5281 163.198 59.5571 163.199 59.5801 163.201C61.7291 166.001 70.6851 177.098 72.0801 178.825C72.0811 178.829 72.0821 178.832 72.0841 178.835C69.5221 181.93 65.9111 185.504 63.8011 186.509Z" fill="white"/>
<path d="M137.85 65.824C143.362 60.647 145.006 53.849 142.883 45.041C142.676 44.185 142.035 43.5 141.194 43.239C140.352 42.977 139.434 43.179 138.78 43.769L130.559 51.172C129.121 50.377 126.883 48.721 126.094 45.842L132.897 39.113C133.844 38.175 133.889 36.66 133.001 35.667L132.815 35.46C132.622 35.244 132.393 35.064 132.137 34.927C131.977 34.841 128.149 32.811 123.313 32.811C118.604 32.811 114.454 34.732 111.311 38.367C105.311 45.305 106.754 53.409 107.768 56.838L104.28 60.326L93.996 51.09L98.713 47.824L78.671 34.1L68.07 44.703L81.794 64.744L85.06 60.027L94.297 70.309L91.002 73.603C89.502 73.125 87.119 72.551 84.339 72.551C78.91 72.551 74.103 74.725 70.377 78.91C70.106 79.239 63.778 87.075 67.626 97.531C67.91 98.304 68.557 98.887 69.355 99.091C70.151 99.294 71 99.092 71.619 98.55L79.914 91.291C81.237 91.858 83.536 93.371 84.573 97.216L77.189 104.732C76.555 105.377 76.319 106.314 76.572 107.182C76.825 108.05 77.526 108.714 78.407 108.919C78.517 108.944 81.131 109.542 84.582 109.542C91.422 109.542 96.694 107.271 99.827 102.975C103.19 98.362 103.921 93.542 103.821 89.887L120.038 106.104L120.21 106.262C121.731 107.522 124.528 108.987 127.661 108.987C129.888 108.987 132.286 108.246 134.513 106.163L140.031 100.647L140.133 100.543C145.145 95.185 142.391 88.845 140.233 86.241L123.288 69.282C124.315 69.388 125.436 69.463 126.61 69.463C131.498 69.462 135.279 68.238 137.85 65.824ZM84.551 51.978L81.817 55.927L74.541 45.302L79.272 40.57L89.897 47.846L85.947 50.58L100.739 63.866L96.645 67.959L97.836 66.767L84.551 51.978ZM98.113 85.502C98.222 85.815 100.728 93.248 95.785 100.029C93.015 103.827 88.037 104.555 84.385 104.541L89.088 99.754C89.654 99.178 89.908 98.363 89.768 97.567C87.977 87.42 80.023 86.083 79.685 86.031C78.956 85.921 78.214 86.135 77.658 86.62L71.454 92.048C70.932 86.488 73.867 82.559 74.213 82.116C76.934 79.086 80.34 77.55 84.338 77.55C87.853 77.55 90.569 78.761 90.587 78.77C91.54 79.209 92.663 79.011 93.405 78.269L112.405 59.269C113.13 58.545 113.339 57.453 112.932 56.513C112.897 56.43 109.438 48.173 115.09 41.637C117.285 39.098 120.051 37.811 123.311 37.811C124.541 37.811 125.694 37.994 126.676 38.232L121.629 43.225C121.078 43.769 120.811 44.537 120.904 45.305C121.916 53.605 129.873 56.382 130.211 56.496C131.066 56.784 132.012 56.59 132.684 55.985L138.733 50.538C139.106 55.402 137.713 59.092 134.424 62.18C132.416 64.067 129.065 64.463 126.606 64.463C122.917 64.463 119.655 63.598 119.624 63.59C118.759 63.354 117.829 63.604 117.194 64.243L98.694 82.91C98.023 83.587 97.801 84.6 98.113 85.502ZM103.615 87.344C103.615 87.347 103.615 87.349 103.615 87.352C103.615 87.349 103.615 87.347 103.615 87.344ZM103.434 86.223C103.444 86.275 103.454 86.327 103.463 86.381C103.453 86.329 103.443 86.274 103.434 86.223ZM136.525 97.079L131.046 102.555C127.798 105.535 124.146 102.987 123.47 102.468L104.827 83.823L119.768 68.748L117.733 70.801L136.44 89.507C136.9 90.099 139.537 93.794 136.525 97.079ZM121.316 69.025C121.324 69.026 121.332 69.027 121.339 69.029C121.332 69.027 121.324 69.026 121.316 69.025ZM120.473 68.882C120.493 68.886 120.518 68.89 120.539 68.894C120.516 68.89 120.494 68.886 120.473 68.882Z" fill="white"/>
<path d="M104.162 6.00201C67.7542 6.00201 38.2402 35.516 38.2402 71.924C38.2402 105.441 63.2602 133.096 95.6382 137.278V163.502C95.6382 163.502 153.077 142.259 167.607 89.88C167.685 89.597 167.746 89.342 167.818 89.068C167.931 88.644 168.043 88.218 168.148 87.791C168.212 87.528 168.267 87.277 168.326 87.022C169.463 82.171 170.084 77.121 170.084 71.924C170.084 35.516 140.57 6.00201 104.162 6.00201ZM161.51 85.424L161.504 85.451L161.498 85.478L161.469 85.608C161.43 85.778 161.393 85.947 161.35 86.123C161.256 86.499 161.159 86.874 161.049 87.284L160.945 87.684C160.92 87.792 160.892 87.9 160.863 88.008C155.299 108.064 142.343 125.708 122.357 140.45C114.984 145.888 107.949 149.914 102.638 152.625V137.277V131.123L96.5342 130.335C67.2912 126.558 45.2392 101.446 45.2392 71.923C45.2392 39.433 71.6712 13.001 104.161 13.001C136.649 13.001 163.083 39.433 163.083 71.923C163.084 76.432 162.555 80.974 161.51 85.424Z" fill="white"/>
<path d="M54.583 187.998C51.792 187.998 44.5939 187.378 38.0289 181.634C37.3149 181.009 36.3229 180.23 35.1749 179.328C25.749 171.922 6.13395 156.511 -0.278051 120.785L-0.352051 120.376L-0.328051 119.962C-0.284051 119.21 0.41795 112.398 11.3029 104.649C12.1799 104.032 15.2099 102.057 18.0589 102.057C19.7669 102.057 21.2529 102.745 22.2429 103.995C24.0469 106.272 36.909 122.493 36.909 122.493L37.1279 122.804C38.334 124.719 38.9749 128.518 35.882 131.235L29.9889 137.128C29.8139 139.24 29.791 144.388 33.075 148.227C36.767 152.544 40.582 154.016 42.3549 154.495L47.841 151.752C48.5169 151.369 50.7929 150.199 53.353 150.199C55.639 150.199 57.625 151.15 58.9459 152.877C61.0599 155.641 71.4499 168.507 71.5549 168.637L71.7099 168.844C72.8249 170.453 74.0429 173.993 71.5419 177.052C70.0949 178.821 65.0369 184.752 60.6699 186.83C59.063 187.593 56.958 187.997 54.583 187.998ZM6.71995 120.14C12.7709 152.823 30.806 166.994 39.5 173.824C40.726 174.788 41.785 175.62 42.639 176.367C47.5509 180.665 53.0229 180.999 54.583 180.999C56.094 180.999 57.165 180.745 57.664 180.508C59.774 179.503 63.3859 175.929 65.9479 172.834C65.9469 172.831 65.9449 172.828 65.9439 172.824C64.5499 171.097 55.5929 160 53.444 157.2C53.421 157.198 53.3909 157.197 53.3559 157.197C52.6199 157.197 51.5659 157.678 51.285 157.845L51.067 157.963L43.423 161.786L42.341 161.632C41.0079 161.443 34.0439 160.124 27.7579 152.776C21.3199 145.249 23.15 135.261 23.2309 134.839L23.4339 133.784L30.9619 126.257C28.8699 123.618 20.2909 112.799 17.4599 109.227C16.8489 109.464 15.9929 109.915 15.3409 110.369C8.54795 115.202 7.00795 119.161 6.71995 120.14Z" fill="#3A3A3A"/>
<path d="M78.4428 103.54C74.9908 103.54 72.3778 102.942 72.2678 102.917C71.3868 102.712 70.6848 102.048 70.4328 101.18C70.1808 100.312 70.4158 99.374 71.0498 98.73L78.4338 91.214C77.3968 87.369 75.0978 85.857 73.7748 85.289L65.4798 92.548C64.8598 93.09 64.0118 93.292 63.2158 93.089C62.4178 92.886 61.7718 92.302 61.4868 91.53C57.6388 81.073 63.9668 73.237 64.2378 72.908C67.9638 68.723 72.7708 66.549 78.1998 66.549C80.9798 66.549 83.3618 67.123 84.8628 67.601L101.629 50.836C100.616 47.406 99.1718 39.302 105.172 32.365C108.315 28.731 112.465 26.809 117.174 26.809C122.011 26.809 125.838 28.838 125.999 28.925C126.254 29.062 126.483 29.242 126.676 29.458L126.862 29.665C127.752 30.658 127.707 32.173 126.758 33.111L119.955 39.84C120.744 42.719 122.983 44.375 124.42 45.17L132.642 37.767C133.296 37.177 134.214 36.975 135.055 37.237C135.897 37.498 136.538 38.182 136.745 39.039C138.868 47.848 137.223 54.645 131.712 59.822C129.142 62.236 125.359 63.46 120.47 63.46C117.681 63.46 115.146 63.053 113.631 62.746L97.1268 79.399C97.8558 82.58 98.7578 90.019 93.6878 96.973C90.5548 101.269 85.2828 103.54 78.4428 103.54ZM78.2468 98.539C81.8978 98.554 86.8778 97.825 89.6468 94.027C94.5908 87.246 92.0848 79.813 91.9758 79.5C91.6628 78.598 91.8848 77.585 92.5578 76.907L111.058 58.24C111.692 57.601 112.622 57.351 113.488 57.587C113.518 57.595 116.781 58.46 120.47 58.46C122.928 58.46 126.281 58.064 128.288 56.177C131.576 53.089 132.969 49.399 132.597 44.535L126.548 49.982C125.876 50.586 124.931 50.781 124.075 50.493C123.737 50.379 115.78 47.602 114.768 39.302C114.674 38.534 114.941 37.766 115.492 37.222L120.539 32.229C119.558 31.991 118.404 31.808 117.174 31.808C113.915 31.808 111.15 33.096 108.953 35.634C103.302 42.17 106.761 50.427 106.796 50.51C107.201 51.45 106.992 52.543 106.268 53.266L87.2678 72.266C86.5268 73.008 85.4028 73.206 84.4508 72.767C84.4328 72.759 81.7158 71.547 78.2008 71.547C74.2028 71.547 70.7968 73.083 68.0758 76.113C67.7288 76.555 64.7938 80.485 65.3168 86.045L71.5208 80.617C72.0768 80.131 72.8188 79.917 73.5478 80.028C73.8848 80.08 81.8388 81.417 83.6298 91.564C83.7708 92.36 83.5178 93.174 82.9508 93.751L78.2468 98.539Z" fill="#F0C42E"/>
<path d="M78.9211 54.025L88.1581 64.307L91.6981 60.766L78.4131 45.976L75.6781 49.925L68.4021 39.301L73.1341 34.569L83.7591 41.845L79.8091 44.579L94.6001 57.865L98.1411 54.324L87.8581 45.088L92.5751 41.822L72.5331 28.098L61.9321 38.701L75.6561 58.742L78.9211 54.025Z" fill="#3A3A3A"/>
<path d="M117.147 63.28C115.734 63.134 114.507 62.924 113.63 62.746L111.596 64.799L130.302 83.505C130.762 84.097 133.399 87.792 130.386 91.077L124.908 96.553C121.66 99.533 118.007 96.985 117.332 96.466L98.69 77.821L97.127 79.399C97.372 80.469 97.632 82.029 97.682 83.884L113.899 100.102L114.072 100.26C115.593 101.52 118.39 102.985 121.522 102.985C123.75 102.985 126.147 102.244 128.375 100.161L133.893 94.645L133.995 94.542C139.007 89.184 136.252 82.843 134.094 80.239L117.147 63.28Z" fill="#3A3A3A"/>
<path d="M98.0231 7C130.512 7 156.945 33.432 156.945 65.922C156.945 70.43 156.416 74.972 155.372 79.422L155.366 79.449L155.359 79.476L155.33 79.606C155.292 79.776 155.254 79.945 155.212 80.121C155.118 80.497 155.021 80.872 154.91 81.282L154.807 81.682C154.781 81.79 154.753 81.898 154.724 82.006C149.16 102.062 136.204 119.706 116.218 134.448C108.845 139.886 101.81 143.912 96.4991 146.623V131.275V125.121L90.395 124.333C61.152 120.556 39.1011 95.444 39.1011 65.921C39.1021 33.432 65.5341 7 98.0231 7ZM98.0231 0C61.6161 0 32.1021 29.514 32.1021 65.922C32.1021 99.439 57.1221 127.094 89.5 131.276V157.5C89.5 157.5 146.939 136.257 161.47 83.878C161.548 83.595 161.608 83.34 161.68 83.066C161.794 82.642 161.905 82.216 162.011 81.789C162.074 81.526 162.13 81.275 162.188 81.02C163.326 76.169 163.946 71.119 163.946 65.922C163.945 29.514 134.432 0 98.0231 0Z" fill="#3A3A3A"/>
</g>
<defs>
<clipPath id="clip0">
<rect width="171" height="195" fill="white"/>
</clipPath>
</defs>
</svg>

<svg width="171" height="195" fill="none" xmlns="http://www.w3.org/2000/svg"><g clip-path="url(#a)"><path d="M77.7 174.64c-.11-.13-10.5-13-12.61-15.76a6.86 6.86 0 0 0-5.6-2.68c-2.56 0-4.83 1.17-5.51 1.55l-5.49 2.74c-1.77-.48-5.58-1.95-9.28-6.26-3.28-3.84-3.26-8.99-3.08-11.1l5.9-5.9a6.56 6.56 0 0 0 1.24-8.43l-.22-.3L28.38 110a5.2 5.2 0 0 0-4.18-1.94c-2.85 0-5.88 1.97-6.76 2.59C6.56 118.4 5.86 125.2 5.81 125.96l-.02.42.07.4c6.41 35.73 26.03 51.14 35.45 58.55 1.15.9 2.14 1.68 2.86 2.3A25.53 25.53 0 0 0 60.72 194c2.38 0 4.48-.4 6.09-1.17 4.37-2.08 9.43-8.01 10.87-9.78 2.5-3.06 1.29-6.6.17-8.2l-.16-.21ZM63.8 186.5c-.5.24-1.57.49-3.08.49a18.7 18.7 0 0 1-11.94-4.63c-.86-.75-1.92-1.58-3.14-2.55-8.7-6.82-26.73-21-32.78-53.68.29-.98 1.83-4.94 8.62-9.77.65-.45 1.5-.9 2.12-1.14l13.5 17.03-7.53 7.53-.2 1.05c-.08.42-1.91 10.4 4.52 17.94 6.29 7.35 13.25 8.66 14.59 8.85l1.08.16 7.64-3.83.22-.11a5.28 5.28 0 0 1 2.16-.65 1632.26 1632.26 0 0 0 12.5 15.64c-2.56 3.09-6.17 6.66-8.28 7.67ZM137.85 65.82c5.51-5.17 7.16-11.97 5.03-20.78a2.5 2.5 0 0 0-4.1-1.27l-8.22 7.4c-1.44-.8-3.68-2.45-4.47-5.33l6.8-6.73c.95-.94 1-2.45.11-3.44l-.19-.21c-.19-.22-.42-.4-.67-.53a20.4 20.4 0 0 0-8.83-2.12c-4.7 0-8.86 1.92-12 5.56-6 6.94-4.56 15.04-3.54 18.47l-3.49 3.49L94 51.09l4.71-3.27L78.67 34.1l-10.6 10.6 13.72 20.04 3.27-4.71L94.3 70.3 91 73.6a22.31 22.31 0 0 0-6.66-1.06 18.22 18.22 0 0 0-13.96 6.36c-.27.33-6.6 8.17-2.75 18.62a2.5 2.5 0 0 0 3.99 1.02l8.3-7.26c1.32.57 3.62 2.08 4.65 5.93l-7.38 7.51a2.5 2.5 0 0 0 1.22 4.19c.1.02 2.72.62 6.17.62 6.84 0 12.11-2.27 15.25-6.57a20.93 20.93 0 0 0 4-13.08l16.2 16.21.18.16a12.28 12.28 0 0 0 7.45 2.73c2.23 0 4.63-.74 6.85-2.83l5.52-5.51.1-.1c5.02-5.36 2.26-11.7.1-14.3L123.3 69.27c1.02.1 2.15.18 3.32.18 4.89 0 8.67-1.22 11.24-3.64Zm-53.3-13.84-2.73 3.95-7.28-10.63 4.73-4.73 10.63 7.28-3.95 2.73 14.79 13.29-4.1 4.09 1.2-1.2-13.29-14.78ZM98.11 85.5c.11.31 2.62 7.75-2.33 14.53-2.77 3.8-7.74 4.53-11.4 4.51l4.7-4.79c.57-.57.83-1.39.69-2.18-1.8-10.15-9.75-11.49-10.08-11.54-.73-.1-1.48.1-2.03.59l-6.2 5.43a14.7 14.7 0 0 1 2.75-9.93 13.13 13.13 0 0 1 10.13-4.57c3.51 0 6.23 1.21 6.25 1.22a2.5 2.5 0 0 0 2.81-.5l19-19a2.5 2.5 0 0 0 .53-2.76c-.03-.08-3.5-8.34 2.16-14.87a10.48 10.48 0 0 1 8.22-3.83c1.23 0 2.38.18 3.37.42l-5.05 5a2.5 2.5 0 0 0-.73 2.08c1.02 8.3 8.97 11.07 9.31 11.19.86.28 1.8.09 2.47-.52l6.05-5.44c.38 4.86-1.02 8.55-4.3 11.64-2.01 1.89-5.37 2.28-7.82 2.28-3.7 0-6.95-.86-6.99-.87a2.5 2.5 0 0 0-2.43.65L98.7 82.91c-.67.68-.89 1.69-.58 2.6Zm5.5 1.84v.01Zm-.18-1.12Zm33.1 10.86-5.48 5.48c-3.25 2.97-6.9.43-7.58-.1l-18.64-18.64 14.94-15.07-2.04 2.05 18.71 18.7c.46.6 3.1 4.3.09 7.58Zm-15.21-28.05Zm-.85-.15.07.01h-.07Z" fill="#fff"/><path d="M104.16 6a65.92 65.92 0 0 0-8.52 131.28v26.22s57.44-21.24 71.97-73.62l.2-.81.34-1.28.18-.77A65.92 65.92 0 0 0 104.17 6Zm57.35 79.42v.03l-.01.03-.03.13-.12.51-.3 1.16-.1.4-.09.33c-5.56 20.05-18.52 37.7-38.5 52.44a143.41 143.41 0 0 1-19.72 12.18V131.12l-6.1-.78a59 59 0 0 1-51.3-58.42A58.99 58.99 0 0 1 104.16 13a58.99 58.99 0 0 1 57.35 72.42Z" fill="#fff"/><path d="M54.58 188c-2.79 0-9.99-.62-16.55-6.37-.72-.62-1.7-1.4-2.86-2.3-9.42-7.4-29.04-22.82-35.45-58.55l-.07-.4.02-.42c.05-.75.75-7.56 11.63-15.31.88-.62 3.91-2.6 6.76-2.6 1.7 0 3.2.7 4.18 1.95l14.67 18.5.22.3a6.56 6.56 0 0 1-1.25 8.44l-5.9 5.89c-.17 2.11-.19 7.26 3.1 11.1 3.69 4.31 7.5 5.79 9.27 6.27l5.5-2.75c.67-.38 2.94-1.55 5.5-1.55 2.29 0 4.27.95 5.6 2.68a1741.1 1741.1 0 0 0 12.6 15.76l.16.2c1.11 1.61 2.33 5.15-.17 8.21-1.45 1.77-6.5 7.7-10.87 9.78-1.6.76-3.71 1.17-6.09 1.17ZM6.72 120.14c6.05 32.68 24.09 46.85 32.78 53.68 1.23.97 2.28 1.8 3.14 2.55A18.7 18.7 0 0 0 54.58 181c1.51 0 2.59-.25 3.08-.5 2.11-1 5.73-4.57 8.29-7.67-1.4-1.73-10.36-12.83-12.5-15.63h-.1c-.73 0-1.78.48-2.07.65l-.21.11-7.65 3.83-1.08-.16c-1.33-.19-8.3-1.5-14.58-8.85-6.44-7.53-4.61-17.52-4.53-17.94l.2-1.06 7.53-7.52-13.5-17.03c-.61.23-1.47.69-2.12 1.14-6.8 4.83-8.33 8.8-8.62 9.77Z" fill="#3A3A3A"/><path d="M78.44 103.54c-3.45 0-6.06-.6-6.17-.62a2.5 2.5 0 0 1-1.22-4.19l7.38-7.52c-1.03-3.84-3.33-5.35-4.66-5.92l-8.29 7.26a2.5 2.5 0 0 1-4-1.02 19.63 19.63 0 0 1 2.76-18.62 18.22 18.22 0 0 1 13.96-6.36c2.78 0 5.16.57 6.66 1.05l16.77-16.76c-1.01-3.43-2.46-11.54 3.54-18.48a15.48 15.48 0 0 1 12-5.55c4.84 0 8.67 2.03 8.83 2.12.25.13.48.31.68.53l.18.2c.9 1 .85 2.51-.1 3.45l-6.8 6.73c.78 2.88 3.02 4.53 4.46 5.33l8.22-7.4a2.5 2.5 0 0 1 4.1 1.27c2.13 8.8.48 15.6-5.03 20.78-2.57 2.42-6.35 3.64-11.24 3.64-2.79 0-5.32-.4-6.84-.71L97.13 79.4c.73 3.18 1.63 10.62-3.44 17.57-3.14 4.3-8.4 6.57-15.25 6.57Zm-.2-5c3.66.01 8.64-.72 11.4-4.51 4.95-6.78 2.44-14.22 2.34-14.53-.32-.9-.1-1.92.58-2.6l18.5-18.66a2.5 2.5 0 0 1 2.43-.65c.03 0 3.3.87 6.98.87 2.46 0 5.81-.4 7.82-2.28 3.29-3.1 4.68-6.78 4.3-11.65l-6.04 5.45c-.67.6-1.62.8-2.47.51-.34-.11-8.3-2.89-9.31-11.19a2.5 2.5 0 0 1 .72-2.08l5.05-5c-.98-.23-2.14-.41-3.37-.41-3.25 0-6.02 1.29-8.22 3.82-5.65 6.54-2.19 14.8-2.15 14.88.4.94.2 2.03-.53 2.76l-19 19a2.5 2.5 0 0 1-2.82.5c-.02-.01-2.73-1.22-6.25-1.22-4 0-7.4 1.53-10.12 4.56-.35.45-3.29 4.38-2.76 9.94l6.2-5.43a2.5 2.5 0 0 1 2.03-.6c.33.06 8.29 1.4 10.08 11.54a2.5 2.5 0 0 1-.68 2.2l-4.7 4.78Z" fill="#F0C42E"/><path d="m78.92 54.02 9.24 10.29 3.54-3.54-13.29-14.8-2.73 3.95L68.4 39.3l4.73-4.73 10.63 7.27-3.95 2.74L94.6 57.87l3.54-3.55-10.28-9.23 4.72-3.27L72.53 28.1l-10.6 10.6 13.73 20.04 3.26-4.72ZM117.15 63.28a37.19 37.19 0 0 1-3.52-.53l-2.03 2.05 18.7 18.7c.46.6 3.1 4.3.09 7.58l-5.48 5.47c-3.25 2.98-6.9.44-7.58-.08L98.7 77.82l-1.56 1.58c.24 1.07.5 2.63.55 4.48l16.22 16.22.17.16a12.28 12.28 0 0 0 7.45 2.72c2.23 0 4.63-.74 6.86-2.82l5.51-5.52.1-.1c5.02-5.36 2.26-11.7.1-14.3l-16.94-16.96Z" fill="#3A3A3A"/><path d="M98.02 7a58.99 58.99 0 0 1 57.35 72.42v.03l-.01.03-.03.13a36.36 36.36 0 0 1-.42 1.67l-.1.4-.09.33c-5.56 20.05-18.52 37.7-38.5 52.44a143.42 143.42 0 0 1-19.72 12.17v-21.5l-6.1-.79a59 59 0 0 1-51.3-58.4A58.99 58.99 0 0 1 98.02 7Zm0-7a65.92 65.92 0 0 0-8.52 131.28v26.22s57.44-21.24 71.97-73.62l.21-.81.33-1.28.18-.77A65.92 65.92 0 0 0 98.03 0Z" fill="#3A3A3A"/></g><defs><clipPath id="a"><path fill="#fff" d="M0 0h171v195H0z"/></clipPath></defs></svg>
